src/assets/icons/icons.svg

<svg xmlns="http://www.w3.org/2000/svg" aria-hidden="true" style="position:absolute;width:0;height:0;overflow:hidden"><defs><symbol id="icon-youtube" viewBox="0 0 32 32"><path d="M24.24 6c-1.36-.08-4.16-.16-8.4-.16h-.56c-4.08 0-6.8.08-8.16.24-1.84.16-3.12.64-3.84 1.28-.64.56-1.12 1.6-1.28 2.96-.08.88-.16 2.72-.16 5.52v.4c0 2.64.08 4.48.24 5.36.24 1.28.64 2.24 1.44 2.8.8.64 2.16 1.04 4.08 1.2 1.36.08 4.16.16 8.4.16h.56c4.08 0 6.8-.08 8.16-.24 1.84-.16 3.12-.64 3.84-1.28.64-.56 1.12-1.6 1.28-2.96.08-.88.16-2.72.16-5.52v-.4c0-2.64-.08-4.48-.24-5.36-.24-1.28-.64-2.24-1.44-2.8-.8-.64-2.16-1.04-4.08-1.2zm-3.12 9.84-8.8 5.28V10.56l8.8 5.28z"/></symbol><symbol id="icon-instagram" viewBox="0 0 32 32"><path d="M28.717 10.756a9.264 9.264 0 0 0-.596-3.145 6.547 6.547 0 0 0-3.743-3.737 9.42 9.42 0 0 0-3.108-.596c-1.368-.061-1.801-.078-5.273-.078s-3.917 0-5.274.078a9.418 9.418 0 0 0-3.106.596 6.541 6.541 0 0 0-3.743 3.737 9.288 9.288 0 0 0-.596 3.101c-.061 1.367-.08 1.8-.08 5.265s0 3.909.08 5.265a9.335 9.335 0 0 0 .596 3.104 6.548 6.548 0 0 0 3.744 3.735 9.37 9.37 0 0 0 3.106.639c1.369.061 1.803.08 5.274.08s3.916 0 5.274-.08a9.357 9.357 0 0 0 3.108-.595 6.555 6.555 0 0 0 3.743-3.737 9.35 9.35 0 0 0 .596-3.104c.061-1.365.08-1.798.08-5.265-.003-3.466-.003-3.906-.082-5.264zM15.99 22.531c-3.631 0-6.572-2.936-6.572-6.561s2.941-6.561 6.572-6.561c3.628 0 6.572 2.936 6.572 6.561s-2.944 6.561-6.572 6.561zm6.833-11.835a1.53 1.53 0 1 1 0-3.06 1.53 1.53 0 1 1 0 3.06z"/><path d="M15.992 19.976a4.004 4.004 0 1 0 0-8.009 4.004 4.004 0 0 0 0 8.009z"/></symbol><symbol id="icon-facebook" viewBox="0 0 32 32"><path d="M19.52 4.64h.96v3.6h-1.2c-.48 0-.96 0-1.2.24s-.24.48-.24 1.04v1.28h2.64v3.04h-2.64v13.2h-4.08V13.76H11.6v-3.04h2.16V9.68c0-1.76.24-3.04.72-3.6.72-1.04 2.16-1.52 4.32-1.52.24.08.48.08.72.08z"/></symbol><symbol id="icon-vector" viewBox="0 0 16 32"><path d="M5.083 17.135a2.214 2.214 0 0 1-.657-1.578 2.223 2.223 0 0 1 .657-1.578l10.2-10.178a2.214 2.214 0 0 0 .657-1.578A2.223 2.223 0 0 0 12.149.645l-10.2 10.2a6.668 6.668 0 0 0 0 9.422l10.2 10.2a2.223 2.223 0 0 0 2.409.479 2.225 2.225 0 0 0 .725-3.635l-10.2-10.178z"/></symbol><symbol id="icon-inverted-commas" viewBox="0 0 32 32"><path d="M8.201 17.469c1.546-.613 2.785-.452 3.719.481s1.21 2.421.831 4.463c-.292 1.517-.933 2.683-1.925 3.5-.963.787-2.085 1.181-3.369 1.181-1.75 0-2.96-.671-3.631-2.013-.671-1.371-.802-3.208-.394-5.512.233-1.254.613-2.523 1.137-3.806s1.225-2.596 2.1-3.938 2.013-2.508 3.413-3.5 2.946-1.633 4.637-1.925l-.437 4.638c-1.429.292-2.698 1.035-3.806 2.231-1.108 1.167-1.867 2.567-2.275 4.2zm13.169 0c1.546-.613 2.785-.452 3.719.481s1.21 2.421.831 4.463c-.292 1.517-.933 2.683-1.925 3.5-.963.787-2.085 1.181-3.369 1.181-1.75 0-2.96-.671-3.631-2.013-.671-1.371-.802-3.208-.394-5.512.233-1.254.613-2.523 1.137-3.806s1.225-2.596 2.1-3.938 2.013-2.508 3.413-3.5 2.946-1.633 4.637-1.925l-.437 4.638c-1.429.292-2.698 1.035-3.806 2.231-1.108 1.167-1.867 2.567-2.275 4.2z"/></symbol><symbol id="icon-running-man" viewBox="0 0 29 32"><path d="M28.367 9.451a1.232 1.232 0 0 0-1.706-.149l-3.359 2.757-1.545-3.739a1.157 1.157 0 0 0-.234-.362 3.255 3.255 0 0 0-1.619-1.617 3.379 3.379 0 0 0-1.005-.262c-.075-.038-.142-.088-.227-.114l-5.911-1.61a1.242 1.242 0 0 0-.938.125 1.17 1.17 0 0 0-.736.672l-2.226 5.592a1.18 1.18 0 0 0 .692 1.534 1.224 1.224 0 0 0 1.568-.678l1.88-4.722 2.692.731c-.066.104-.137.201-.19.312l-3.451 7.309c-.05.107-.076.217-.112.328l-4.194 6.871-7.019 2.294a1.73 1.73 0 0 0-.376 2.45 1.82 1.82 0 0 0 2.506.369l7.182-2.417c.22-.156.38-.36.5-.581.09-.093.193-.168.262-.284l2.501-4.096 4.439 3.696-4.749 5.23a1.722 1.722 0 0 0 .152 2.469c.74.643 1.873.575 2.531-.149l5.927-6.524c.184-.201.294-.433.369-.676.044-.132.044-.268.055-.405 0-.069.027-.132.021-.196a1.705 1.705 0 0 0-.615-1.274l-4.084-3.403c.294-.274.544-.6.725-.983l2.646-5.599.848 2.206c.036.196.103.388.245.549.128.149.291.248.465.317.018.009.039.01.06.016.11.038.222.075.337.08.136.012.275-.005.415-.043l.005-.002c.037-.009.075-.002.112-.017.197-.073.348-.196.477-.34l4.82-3.998c.512-.421.296-1.166-.135-1.667zM22.271 6.602c1.866 0 3.378-1.478 3.378-3.301S24.137 0 22.271 0s-3.378 1.478-3.378 3.301 1.513 3.301 3.378 3.301z"/></symbol><symbol id="icon-asterisk" viewBox="0 0 32 32"><path fill-rule="evenodd" clip-rule="evenodd" d="M16.9997 16.1754L17.433 16.6215L12.107 1.29404L18.2093 15.6512L18.453 16.2246L18.474 15.6018L19 0L19.526 15.6015L19.547 16.2246L19.7906 15.6515L25.893 1.29404L20.7716 16.0328L20.567 16.6215L21.0003 16.1754L31.8551 5.00141L21.7779 16.8869L21.3755 17.3616L36.081 10.6214L22.4091 18.0484L21.8631 18.345L22.4825 18.3086L38 17.395L21.964 19.439L37.353 24.4074L22.2672 20.6459L21.6646 20.4957L22.1469 20.8878L34.2273 30.7115L21.5132 21.7311L21.0054 21.3724L21.314 21.913L29.0451 35.456L20.4198 22.4694L20.0753 21.9507L22.5062 38L19 22.1526L15.4938 38L17.8313 22.5671L17.9247 21.9507L17.5804 22.4691L8.95494 35.456L16.6858 21.9133L16.9946 21.3724L16.4871 21.7309L3.77271 30.7115L15.8529 20.888L16.3354 20.4957L15.7332 20.6458L0.647022 24.4074L15.445 19.6298L16.036 19.439L0 17.395L16.1369 18.345L15.5912 18.0486L1.91903 10.6214L16.6245 17.3616L6.14495 5.00141L16.9997 16.1754ZM18.1089 16.853L17.3381 17.3323L16.7918 18.0589L16.5437 18.9346L16.6273 19.8411L17.0314 20.6561L17.7014 21.2695L18.5467 21.5984H19.4533L20.2986 21.2695L20.9686 20.6561L21.3727 19.8411L21.4563 18.9346L21.2082 18.0589L20.6619 17.3323L19.8911 16.853L19 16.6857L18.1089 16.853Z"/></symbol><symbol id="icon-star" viewBox="0 0 34 32"><path d="M14.908 1.228c.532-1.638 2.849-1.638 3.382 0l2.7 8.309a1.778 1.778 0 0 0 1.691 1.228h8.737c1.722 0 2.438 2.204 1.045 3.216l-7.068 5.135a1.778 1.778 0 0 0-.646 1.988l2.7 8.309c.532 1.638-1.342 3-2.736 1.988l-7.068-5.135a1.777 1.777 0 0 0-2.09 0l-7.068 5.135c-1.393 1.012-3.268-.35-2.736-1.988l2.7-8.309a1.779 1.779 0 0 0-.646-1.988L.737 13.981c-1.393-1.012-.677-3.216 1.045-3.216h8.736c.77 0 1.453-.496 1.691-1.228l2.7-8.309z"/></symbol><symbol id="icon-arrow" viewBox="0 0 32 32"><path d="M16.762 7.362v17.381h-1.849V7.362l-8.69 8.69-1.308-1.308L15.838 3.821l10.923 10.923-1.308 1.308-8.69-8.69z"/></symbol><symbol id="icon-search" viewBox="0 0 32 32"><path stroke-linecap="round" stroke-linejoin="round" stroke-width="2.667" d="M14.667 25.333c5.891 0 10.667-4.776 10.667-10.667S20.558 3.999 14.667 3.999 4 8.775 4 14.666s4.776 10.667 10.667 10.667zM28 28l-5.8-5.8"/></symbol><symbol id="icon-x" viewBox="0 0 32 32"><path stroke-linecap="round" stroke-linejoin="round" stroke-width="2.667" d="M22.667 9.333 9.334 22.666M9.333 9.333l13.333 13.333"/></symbol><symbol id="icon-trash" viewBox="0 0 32 32"><path stroke-linecap="round" stroke-linejoin="round" stroke-width="2.4" d="M21.333 8V6.933c0-1.493 0-2.24-.291-2.811a2.666 2.666 0 0 0-1.165-1.165c-.57-.291-1.317-.291-2.811-.291h-2.133c-1.493 0-2.24 0-2.811.291-.502.256-.91.664-1.165 1.165-.291.57-.291 1.317-.291 2.811V8m2.667 7.333V22m5.334-6.667V22M4 8h24m-2.667 0v14.933c0 2.24 0 3.36-.436 4.216a3.996 3.996 0 0 1-1.748 1.748c-.856.436-1.976.436-4.216.436h-5.867c-2.24 0-3.36 0-4.216-.436a3.996 3.996 0 0 1-1.748-1.748c-.436-.856-.436-1.976-.436-4.216V8"/></symbol><symbol id="icon-heart" viewBox="0 0 32 32"><path stroke-linecap="round" stroke-linejoin="round" stroke-width="2.4" d="M27.787 6.147a7.345 7.345 0 0 0-5.187-2.15 7.33 7.33 0 0 0-5.187 2.15L16 7.56l-1.413-1.413a7.333 7.333 0 0 0-10.374 0 7.333 7.333 0 0 0 0 10.374L16 28.308l11.787-11.787a7.345 7.345 0 0 0 2.15-5.187 7.33 7.33 0 0 0-2.15-5.187z"/></symbol><symbol id="icon-dumbbells" viewBox="0 0 32 32"><path d="M7.36 9.143H5.44c-.532 0-.96.459-.96 1.029v4.457h-.96c-.176 0-.32.154-.32.343v2.057c0 .188.144.343.32.343h.96v4.457c0 .57.428 1.028.96 1.028h1.92c.532 0 .96-.459.96-1.028V10.172c0-.57-.428-1.029-.96-1.029zm21.12 5.486h-.96v-4.457c0-.57-.428-1.029-.96-1.029h-1.92c-.532 0-.96.459-.96 1.029v11.657c0 .57.428 1.028.96 1.028h1.92c.532 0 .96-.459.96-1.028v-4.457h.96c.176 0 .32-.154.32-.343v-2.057c0-.189-.144-.343-.32-.343zM21.44 6.4h-1.92c-.532 0-.96.459-.96 1.029v7.2h-5.12v-7.2c0-.57-.428-1.029-.96-1.029h-1.92c-.532 0-.96.459-.96 1.029v17.143c0 .57.428 1.029.96 1.029h1.92c.532 0 .96-.459.96-1.029v-7.2h5.12v7.2c0 .57.428 1.029.96 1.029h1.92c.532 0 .96-.459.96-1.029V7.429c0-.57-.428-1.029-.96-1.029z"/></symbol><symbol id="icon-logo" viewBox="0 0 176 32"><path d="M6.64 17.707 0 6.667h3.973l4.453 7.653h.053l4.453-7.653h3.973l-6.64 11.04v7.627H6.638v-7.627zM16.894 22.267V9.734l3.067-3.067h9.6l3.067 3.067v12.533l-3.067 3.067h-9.6l-3.067-3.067zm10.746-.027L29 20.88v-9.76l-1.36-1.36h-5.76l-1.36 1.36v9.76l1.36 1.36h5.76zM35.166 22.133V6.666h3.627v14.213l1.36 1.36h5.227l1.36-1.36V6.666h3.627v15.467l-3.2 3.2h-8.8l-3.2-3.2zM67.837 19.147v6.187H64.21v-5.36l-1.6-1.787h-5.813v7.147H53.17V6.667h11.707l2.853 2.88V15.2l-1.813 1.84 1.92 2.107zM56.797 15.2h6.427l.933-.933V10.64l-.933-.933h-6.427V15.2zM77.098 6.667h13.493v3.067h-9.867v4.72h9.093v3.013h-9.093v4.8h9.867v3.067H77.098V6.667zM92.603 6.667h3.253l8.32 12.667h.053V6.667h3.493v18.667h-3.253l-8.32-12.64h-.053v12.64h-3.493V6.667zM110.53 6.667h13.493v3.067h-9.867v4.72h9.093v3.013h-9.093v4.8h9.867v3.067H110.53V6.667zM140.703 19.147v6.187h-3.627v-5.36l-1.6-1.787h-5.814v7.147h-3.627V6.667h11.707l2.853 2.88V15.2l-1.813 1.84 1.92 2.107zM129.662 15.2h6.427l.933-.933V10.64l-.933-.933h-6.427V15.2zM143.097 22.267V9.734l3.067-3.067h9.28l3.013 3.013v2.853h-3.627v-1.52l-1.253-1.253h-5.493l-1.36 1.36v9.76l1.36 1.36h5.547l1.307-1.307v-2.907h-4v-3.093h7.52v7.333l-3.067 3.067h-9.227l-3.067-3.067zM165.104 17.707l-6.64-11.04h3.973l4.453 7.653h.053l4.453-7.653h3.973l-6.64 11.04v7.627h-3.627v-7.627z"/></symbol></defs></svg>

<svg xmlns="http://www.w3.org/2000/svg" aria-hidden="true" style="position:absolute;width:0;height:0;overflow:hidden"><defs><symbol id="icon-youtube" viewBox="0 0 32 32"><path d="M24.24 6c-1.36-.08-4.16-.16-8.4-.16h-.56c-4.08 0-6.8.08-8.16.24-1.84.16-3.12.64-3.84 1.28-.64.56-1.12 1.6-1.28 2.96-.08.88-.16 2.72-.16 5.52v.4c0 2.64.08 4.48.24 5.36.24 1.28.64 2.24 1.44 2.8.8.64 2.16 1.04 4.08 1.2 1.36.08 4.16.16 8.4.16h.56c4.08 0 6.8-.08 8.16-.24 1.84-.16 3.12-.64 3.84-1.28.64-.56 1.12-1.6 1.28-2.96.08-.88.16-2.72.16-5.52v-.4c0-2.64-.08-4.48-.24-5.36-.24-1.28-.64-2.24-1.44-2.8-.8-.64-2.16-1.04-4.08-1.2zm-3.12 9.84-8.8 5.28V10.56l8.8 5.28z"/></symbol><symbol id="icon-instagram" viewBox="0 0 32 32"><path d="M28.717 10.756a9.264 9.264 0 0 0-.596-3.145 6.547 6.547 0 0 0-3.743-3.737 9.42 9.42 0 0 0-3.108-.596c-1.368-.061-1.801-.078-5.273-.078s-3.917 0-5.274.078a9.418 9.418 0 0 0-3.106.596 6.541 6.541 0 0 0-3.743 3.737 9.288 9.288 0 0 0-.596 3.101c-.061 1.367-.08 1.8-.08 5.265s0 3.909.08 5.265a9.335 9.335 0 0 0 .596 3.104 6.548 6.548 0 0 0 3.744 3.735 9.37 9.37 0 0 0 3.106.639c1.369.061 1.803.08 5.274.08s3.916 0 5.274-.08a9.357 9.357 0 0 0 3.108-.595 6.555 6.555 0 0 0 3.743-3.737 9.35 9.35 0 0 0 .596-3.104c.061-1.365.08-1.798.08-5.265-.003-3.466-.003-3.906-.082-5.264zM15.99 22.531c-3.631 0-6.572-2.936-6.572-6.561s2.941-6.561 6.572-6.561c3.628 0 6.572 2.936 6.572 6.561s-2.944 6.561-6.572 6.561zm6.833-11.835a1.53 1.53 0 1 1 0-3.06 1.53 1.53 0 1 1 0 3.06z"/><path d="M15.992 19.976a4.004 4.004 0 1 0 0-8.009 4.004 4.004 0 0 0 0 8.009z"/></symbol><symbol id="icon-facebook" viewBox="0 0 32 32"><path d="M19.52 4.64h.96v3.6h-1.2c-.48 0-.96 0-1.2.24s-.24.48-.24 1.04v1.28h2.64v3.04h-2.64v13.2h-4.08V13.76H11.6v-3.04h2.16V9.68c0-1.76.24-3.04.72-3.6.72-1.04 2.16-1.52 4.32-1.52.24.08.48.08.72.08z"/></symbol><symbol id="icon-vector" viewBox="0 0 16 32"><path d="M5.083 17.135a2.214 2.214 0 0 1-.657-1.578 2.223 2.223 0 0 1 .657-1.578l10.2-10.178a2.214 2.214 0 0 0 .657-1.578A2.223 2.223 0 0 0 12.149.645l-10.2 10.2a6.668 6.668 0 0 0 0 9.422l10.2 10.2a2.223 2.223 0 0 0 2.409.479 2.225 2.225 0 0 0 .725-3.635l-10.2-10.178z"/></symbol><symbol id="icon-inverted-commas" viewBox="0 0 32 32"><path d="M8.201 17.469c1.546-.613 2.785-.452 3.719.481s1.21 2.421.831 4.463c-.292 1.517-.933 2.683-1.925 3.5-.963.787-2.085 1.181-3.369 1.181-1.75 0-2.96-.671-3.631-2.013-.671-1.371-.802-3.208-.394-5.512.233-1.254.613-2.523 1.137-3.806s1.225-2.596 2.1-3.938 2.013-2.508 3.413-3.5 2.946-1.633 4.637-1.925l-.437 4.638c-1.429.292-2.698 1.035-3.806 2.231-1.108 1.167-1.867 2.567-2.275 4.2zm13.169 0c1.546-.613 2.785-.452 3.719.481s1.21 2.421.831 4.463c-.292 1.517-.933 2.683-1.925 3.5-.963.787-2.085 1.181-3.369 1.181-1.75 0-2.96-.671-3.631-2.013-.671-1.371-.802-3.208-.394-5.512.233-1.254.613-2.523 1.137-3.806s1.225-2.596 2.1-3.938 2.013-2.508 3.413-3.5 2.946-1.633 4.637-1.925l-.437 4.638c-1.429.292-2.698 1.035-3.806 2.231-1.108 1.167-1.867 2.567-2.275 4.2z"/></symbol><symbol id="icon-running-man" viewBox="0 0 29 32"><path d="M28.367 9.451a1.232 1.232 0 0 0-1.706-.149l-3.359 2.757-1.545-3.739a1.157 1.157 0 0 0-.234-.362 3.255 3.255 0 0 0-1.619-1.617 3.379 3.379 0 0 0-1.005-.262c-.075-.038-.142-.088-.227-.114l-5.911-1.61a1.242 1.242 0 0 0-.938.125 1.17 1.17 0 0 0-.736.672l-2.226 5.592a1.18 1.18 0 0 0 .692 1.534 1.224 1.224 0 0 0 1.568-.678l1.88-4.722 2.692.731c-.066.104-.137.201-.19.312l-3.451 7.309c-.05.107-.076.217-.112.328l-4.194 6.871-7.019 2.294a1.73 1.73 0 0 0-.376 2.45 1.82 1.82 0 0 0 2.506.369l7.182-2.417c.22-.156.38-.36.5-.581.09-.093.193-.168.262-.284l2.501-4.096 4.439 3.696-4.749 5.23a1.722 1.722 0 0 0 .152 2.469c.74.643 1.873.575 2.531-.149l5.927-6.524c.184-.201.294-.433.369-.676.044-.132.044-.268.055-.405 0-.069.027-.132.021-.196a1.705 1.705 0 0 0-.615-1.274l-4.084-3.403c.294-.274.544-.6.725-.983l2.646-5.599.848 2.206c.036.196.103.388.245.549.128.149.291.248.465.317.018.009.039.01.06.016.11.038.222.075.337.08.136.012.275-.005.415-.043l.005-.002c.037-.009.075-.002.112-.017.197-.073.348-.196.477-.34l4.82-3.998c.512-.421.296-1.166-.135-1.667zM22.271 6.602c1.866 0 3.378-1.478 3.378-3.301S24.137 0 22.271 0s-3.378 1.478-3.378 3.301 1.513 3.301 3.378 3.301z"/></symbol><symbol id="icon-asterisk" viewBox="0 0 32 32"><path fill-rule="evenodd" d="m17 16.175.433.447-5.326-15.328 6.102 14.357.244.574.021-.623L19 0l.526 15.601.021.624.244-.574 6.102-14.357-5.121 14.739-.205.588.433-.446L31.855 5.001 21.778 16.887l-.402.475 14.705-6.74-13.672 7.426-.546.297.62-.036L38 17.395l-16.036 2.044 15.389 4.968-15.086-3.761-.602-.15.482.392 12.08 9.823-12.714-8.98-.508-.359.309.541 7.731 13.543-8.625-12.987-.345-.518L22.506 38 19 22.153 15.494 38l2.337-15.433.094-.616-.345.518-8.625 12.987 7.73-13.543.31-.54-.508.358-12.714 8.98 12.08-9.823.482-.392-.602.15L.647 24.407l14.798-4.777.591-.191L0 17.395l16.137.95-.546-.296L1.92 10.62l14.706 6.74-10.48-12.36L17 16.175Zm1.109.678-.77.48-.547.726-.248.876.083.906.404.815.67.614.846.328h.906l.846-.328.67-.614.404-.815.083-.906-.248-.876-.546-.727-.77-.479-.892-.167-.891.167Z" clip-rule="evenodd"/></symbol><symbol id="icon-star" viewBox="0 0 34 32"><path d="M14.908 1.228c.532-1.638 2.849-1.638 3.382 0l2.7 8.309a1.778 1.778 0 0 0 1.691 1.228h8.737c1.722 0 2.438 2.204 1.045 3.216l-7.068 5.135a1.778 1.778 0 0 0-.646 1.988l2.7 8.309c.532 1.638-1.342 3-2.736 1.988l-7.068-5.135a1.777 1.777 0 0 0-2.09 0l-7.068 5.135c-1.393 1.012-3.268-.35-2.736-1.988l2.7-8.309a1.779 1.779 0 0 0-.646-1.988L.737 13.981c-1.393-1.012-.677-3.216 1.045-3.216h8.736c.77 0 1.453-.496 1.691-1.228l2.7-8.309z"/></symbol><symbol id="icon-arrow" viewBox="0 0 32 32"><path d="M16.762 7.362v17.381h-1.849V7.362l-8.69 8.69-1.308-1.308L15.838 3.821l10.923 10.923-1.308 1.308-8.69-8.69z"/></symbol><symbol id="icon-search" viewBox="0 0 18 18"><path stroke="#242424" stroke-linecap="round" stroke-linejoin="round" stroke-width="1.5" d="M8.25 14.25a6 6 0 1 0 0-12 6 6 0 0 0 0 12ZM15.75 15.75l-3.263-3.262"/></symbol><symbol id="icon-x" viewBox="0 0 18 18"><path stroke="#242424" stroke-linecap="round" stroke-linejoin="round" stroke-width="1.5" d="m12.75 5.25-7.5 7.5m0-7.5 7.5 7.5"/></symbol><symbol id="icon-trash" viewBox="0 0 32 32"><path stroke-linecap="round" stroke-linejoin="round" stroke-width="2.4" d="M21.333 8V6.933c0-1.493 0-2.24-.291-2.811a2.666 2.666 0 0 0-1.165-1.165c-.57-.291-1.317-.291-2.811-.291h-2.133c-1.493 0-2.24 0-2.811.291-.502.256-.91.664-1.165 1.165-.291.57-.291 1.317-.291 2.811V8m2.667 7.333V22m5.334-6.667V22M4 8h24m-2.667 0v14.933c0 2.24 0 3.36-.436 4.216a3.996 3.996 0 0 1-1.748 1.748c-.856.436-1.976.436-4.216.436h-5.867c-2.24 0-3.36 0-4.216-.436a3.996 3.996 0 0 1-1.748-1.748c-.436-.856-.436-1.976-.436-4.216V8"/></symbol><symbol id="icon-heart" viewBox="0 0 32 32"><path stroke-linecap="round" stroke-linejoin="round" stroke-width="2.4" d="M27.787 6.147a7.345 7.345 0 0 0-5.187-2.15 7.33 7.33 0 0 0-5.187 2.15L16 7.56l-1.413-1.413a7.333 7.333 0 0 0-10.374 0 7.333 7.333 0 0 0 0 10.374L16 28.308l11.787-11.787a7.345 7.345 0 0 0 2.15-5.187 7.33 7.33 0 0 0-2.15-5.187z"/></symbol><symbol id="icon-dumbbells" viewBox="0 0 32 32"><path d="M7.36 9.143H5.44c-.532 0-.96.459-.96 1.029v4.457h-.96c-.176 0-.32.154-.32.343v2.057c0 .188.144.343.32.343h.96v4.457c0 .57.428 1.028.96 1.028h1.92c.532 0 .96-.459.96-1.028V10.172c0-.57-.428-1.029-.96-1.029zm21.12 5.486h-.96v-4.457c0-.57-.428-1.029-.96-1.029h-1.92c-.532 0-.96.459-.96 1.029v11.657c0 .57.428 1.028.96 1.028h1.92c.532 0 .96-.459.96-1.028v-4.457h.96c.176 0 .32-.154.32-.343v-2.057c0-.189-.144-.343-.32-.343zM21.44 6.4h-1.92c-.532 0-.96.459-.96 1.029v7.2h-5.12v-7.2c0-.57-.428-1.029-.96-1.029h-1.92c-.532 0-.96.459-.96 1.029v17.143c0 .57.428 1.029.96 1.029h1.92c.532 0 .96-.459.96-1.029v-7.2h5.12v7.2c0 .57.428 1.029.96 1.029h1.92c.532 0 .96-.459.96-1.029V7.429c0-.57-.428-1.029-.96-1.029z"/></symbol><symbol id="icon-logo" viewBox="0 0 176 32"><path d="M6.64 17.707 0 6.667h3.973l4.453 7.653h.053l4.453-7.653h3.973l-6.64 11.04v7.627H6.638v-7.627zM16.894 22.267V9.734l3.067-3.067h9.6l3.067 3.067v12.533l-3.067 3.067h-9.6l-3.067-3.067zm10.746-.027L29 20.88v-9.76l-1.36-1.36h-5.76l-1.36 1.36v9.76l1.36 1.36h5.76zM35.166 22.133V6.666h3.627v14.213l1.36 1.36h5.227l1.36-1.36V6.666h3.627v15.467l-3.2 3.2h-8.8l-3.2-3.2zM67.837 19.147v6.187H64.21v-5.36l-1.6-1.787h-5.813v7.147H53.17V6.667h11.707l2.853 2.88V15.2l-1.813 1.84 1.92 2.107zM56.797 15.2h6.427l.933-.933V10.64l-.933-.933h-6.427V15.2zM77.098 6.667h13.493v3.067h-9.867v4.72h9.093v3.013h-9.093v4.8h9.867v3.067H77.098V6.667zM92.603 6.667h3.253l8.32 12.667h.053V6.667h3.493v18.667h-3.253l-8.32-12.64h-.053v12.64h-3.493V6.667zM110.53 6.667h13.493v3.067h-9.867v4.72h9.093v3.013h-9.093v4.8h9.867v3.067H110.53V6.667zM140.703 19.147v6.187h-3.627v-5.36l-1.6-1.787h-5.814v7.147h-3.627V6.667h11.707l2.853 2.88V15.2l-1.813 1.84 1.92 2.107zM129.662 15.2h6.427l.933-.933V10.64l-.933-.933h-6.427V15.2zM143.097 22.267V9.734l3.067-3.067h9.28l3.013 3.013v2.853h-3.627v-1.52l-1.253-1.253h-5.493l-1.36 1.36v9.76l1.36 1.36h5.547l1.307-1.307v-2.907h-4v-3.093h7.52v7.333l-3.067 3.067h-9.227l-3.067-3.067zM165.104 17.707l-6.64-11.04h3.973l4.453 7.653h.053l4.453-7.653h3.973l-6.64 11.04v7.627h-3.627v-7.627z"/></symbol></defs></svg>
